X:1
T:I’ll Bear It, Lord, for Thee
T:I’ll Bear It, Lord, for Thee
T:William James Kirkpatrick
T:Frances Jane (Fanny) Crosby, 1890
T:Public Domain Courtesy of the Cyber Hymnal™
T:Public Domain Courtesy of the Cyber Hymnal™
C:William James Kirkpatrick
Z:Public Domain
Z:Courtesy of the Cyber Hymnal™
%%score ( 1 2 ) ( 3 4 )
L:1/8
Q:1/4=150
M:6/4
K:G
V:1 treble 
V:2 treble 
V:3 bass 
V:4 bass 
V:1
 [B,D]2 | [DB]4 [CA]2 [Ec]4 [DB]2 | [DB]4 [CA]2 [B,G]4 [DF]2 | [CE]4 [CG]2 (A2 G2) [CE]2 | %4
w: 1.~I|longed to be a|child of God, And|do my Sav- * ior’s|
w: 2.~The|cold was lift- ed|from my soul, My|bur- den rolled * a-|
w: 3.~I|heard a gen- tle|voice with- in A|whis- per soft * and|
 [B,D]6- [B,D]4 [B,D]2 | [DB]4 [CA]2 [Ec]4 [DB]2 | [DB]4 [CA]2 [B,G]4 D2 | %7
w: will; * And|yet the sin that|most I feared, I|
w: way; * The|light of joy a-|round me shed, A|
w: mild; * “Thy|sin was can- celled|by His blood, Who|
 [CE]4 [CA]2 (A2 G2) [CF]2 | [B,G]6- [B,G]4 [DB]2 | [^DB]4 [DF]2 [DF]4 [FA]2 | %10
w: knew un- con- * quered|still. * “Dear|Lord,” I said, for|
w: calm and heaven- * ly|ray. * “Dear|Lord,” I said, “I|
w: owns thee for * His|child.” * “Dear|Lord,” I said, “the|
 [FA]4 [EG]2 [EG]4 [GB]2 x12 | [EB]4 [EA]2 (A2 B2) [G^c]2 | [Fd]6- [Fd]4 [Dc]2 | %13
w: as I knelt I|saw Him on * the|tree— * “This|
w: praise Thy name For|Thy rich grace * to|me; * My|
w: work is Thine, And|Thine the glo- * ry|be. * My|
 [DB]4 [CA]2 [Ec]4 [DB]2 | [DB]4 [CA]2 [B,G]4 D2 | [CE]4 [CA]2 (A2 G2) [CF]2 | [B,G]6- [B,G]4 x4 || %17
w: hea- vy bur- den|on my heart, I’ll|glad- ly bear * for|Thee.” *|
w: load is gone and|now I rest, In|per- fect peace * with|Thee.” *|
w: life, my soul, my|ev- ery pow’r, I|con- se- crate * to|Thee.” *|
"^Refrain" [Gd]2 [Fd]4 [FA]2 ([FA]2 [GB]2) [Ac]2 | [Ac]4 [GB]2 [GB]4 [Gd]2 | %19
w: ||
w: So now for Him * who|died for me, I’m|
w: ||
 [Fd]4 [FA]2 ([FA]2 [GB]2) [Ac]2 | [GB]6- [GB]4 D2 | [DG]4 [GB]2 ([GB]2 [DA]2) [DG]2 | %22
w: |||
w: wil- ling all * to|bear * O-|be- dient love * will|
w: |||
 [EA]4 [EB]2 !fermata![Ec]4 [CE]2 | [B,D]4 [DG]2 (F2 G2) [DA]2 | [B,G]6- [B,G]4 |] %25
w: |||
w: ne- ver fail, To|bring the an- * swered|prayer. *|
w: |||
V:2
 x2 | x12 | x12 | x6 C4 x2 | x12 | x12 | x12 | x6 C4 x2 | x12 | x12 | x24 | x6 G4 x2 | x12 | x12 | %14
 x12 | x6 C4 x2 | x14 || x14 | x12 | x12 | x10 D2 | x12 | x12 | x6 D4 x2 | x10 |] %25
V:3
 [G,,G,]2 | [G,,G,]4 [G,,G,]2 [G,,G,]4 [G,,G,]2 | [D,G,]4 [D,F,]2 [G,,G,]4 [B,,G,]2 | %3
 [C,G,]4 [C,E,]2 [C,E,]4 [C,G,]2 | [G,,G,]6- [G,,G,]4 [G,,G,]2 | G,4 G,2 G,4 G,2 | %6
 [D,G,]4 [D,F,]2 [E,G,]4 [B,,G,]2 | [C,G,]4 [C,E,]2 (F,2 G,2) [D,A,]2 | %8
 [G,,G,]6- [G,,G,]4 [G,,G,]2 | [B,,F,]4 [B,,B,]2 [B,,B,]4 [B,,B,]2 | %10
 [E,B,]4 [E,B,]2 [E,B,]4 [E,B,]2 [A,,A,^C]4 [A,,A,C]2 (C2 B,2) [A,,A,]2 | %11
 [D,A,]6- [D,A,]4 [D,F,]2 | G,4 G,2 G,4 G,2 | [D,G,]4 [D,F,]2 [E,G,]4 [B,,G,]2 | %14
 [C,G,]4 [C,E,]2 (F,2 G,2) [D,A,]2 | [G,,G,]6- [G,,G,]4 x2 | %16
 [G,B,]2 [D,A,]4 [D,D]2 [D,D]4 [D,D]2 || [G,D]4 [G,D]2 [G,D]4 [G,B,]2 x2 | %18
 [D,A,]4 [D,D]2 [D,D]4 [D,D]2 | [G,D]6- [G,D]4 [G,B,]2 | [G,B,]4 [G,D]2 (D2 C2) [G,B,]2 | %21
 [C,C]4 [B,,^G,]2 !fermata![A,,A,]4 [C,=G,]2 | [E,G,]4 [D,B,]2 (A,2 B,2) [D,C]2 | %23
 [G,,G,B,]6- [G,,G,B,]4 x2 | x10 |] %25
V:4
 x2 | x12 | x12 | x12 | x12 | x12 | x12 | x6 D,4 x2 | x12 | x12 | x18 [A,,A,]4 x2 | x12 | x12 | %13
 x12 | x6 D,4 x2 | x12 | x14 || x14 | x12 | x12 | x6 G,4 x2 | x12 | x6 D,4 x2 | x12 | x10 |] %25

